data/icons/money-symbolic.svg

<?xml version="1.0" encoding="UTF-8"?>
<svg height="16px" viewBox="0 0 16 16" width="16px" xmlns="http://www.w3.org/2000/svg" xmlns:xlink="http://www.w3.org/1999/xlink">
    <filter id="a" height="100%" width="100%" x="0%" y="0%">
        <feColorMatrix in="SourceGraphic" type="matrix" values="0 0 0 0 1 0 0 0 0 1 0 0 0 0 1 0 0 0 1 0"/>
    </filter>
    <mask id="b">
        <g filter="url(#a)">
            <path d="m 0 0 h 16 v 16 h -16 z" fill-opacity="0.3"/>
        </g>
    </mask>
    <clipPath id="c">
        <path d="m 0 0 h 1024 v 800 h -1024 z"/>
    </clipPath>
    <mask id="d">
        <g filter="url(#a)">
            <path d="m 0 0 h 16 v 16 h -16 z" fill-opacity="0.05"/>
        </g>
    </mask>
    <clipPath id="e">
        <path d="m 0 0 h 1024 v 800 h -1024 z"/>
    </clipPath>
    <mask id="f">
        <g filter="url(#a)">
            <path d="m 0 0 h 16 v 16 h -16 z" fill-opacity="0.05"/>
        </g>
    </mask>
    <clipPath id="g">
        <path d="m 0 0 h 1024 v 800 h -1024 z"/>
    </clipPath>
    <mask id="h">
        <g filter="url(#a)">
            <path d="m 0 0 h 16 v 16 h -16 z" fill-opacity="0.05"/>
        </g>
    </mask>
    <clipPath id="i">
        <path d="m 0 0 h 1024 v 800 h -1024 z"/>
    </clipPath>
    <mask id="j">
        <g filter="url(#a)">
            <path d="m 0 0 h 16 v 16 h -16 z" fill-opacity="0.05"/>
        </g>
    </mask>
    <clipPath id="k">
        <path d="m 0 0 h 1024 v 800 h -1024 z"/>
    </clipPath>
    <mask id="l">
        <g filter="url(#a)">
            <path d="m 0 0 h 16 v 16 h -16 z" fill-opacity="0.05"/>
        </g>
    </mask>
    <clipPath id="m">
        <path d="m 0 0 h 1024 v 800 h -1024 z"/>
    </clipPath>
    <mask id="n">
        <g filter="url(#a)">
            <path d="m 0 0 h 16 v 16 h -16 z" fill-opacity="0.05"/>
        </g>
    </mask>
    <clipPath id="o">
        <path d="m 0 0 h 1024 v 800 h -1024 z"/>
    </clipPath>
    <mask id="p">
        <g filter="url(#a)">
            <path d="m 0 0 h 16 v 16 h -16 z" fill-opacity="0.3"/>
        </g>
    </mask>
    <clipPath id="q">
        <path d="m 0 0 h 1024 v 800 h -1024 z"/>
    </clipPath>
    <mask id="r">
        <g filter="url(#a)">
            <path d="m 0 0 h 16 v 16 h -16 z" fill-opacity="0.5"/>
        </g>
    </mask>
    <clipPath id="s">
        <path d="m 0 0 h 1024 v 800 h -1024 z"/>
    </clipPath>
    <mask id="t">
        <g filter="url(#a)">
            <path d="m 0 0 h 16 v 16 h -16 z" fill-opacity="0.4"/>
        </g>
    </mask>
    <clipPath id="u">
        <path d="m 0 0 h 1024 v 800 h -1024 z"/>
    </clipPath>
    <mask id="v">
        <g filter="url(#a)">
            <path d="m 0 0 h 16 v 16 h -16 z" fill-opacity="0.4"/>
        </g>
    </mask>
    <clipPath id="w">
        <path d="m 0 0 h 1024 v 800 h -1024 z"/>
    </clipPath>
    <mask id="x">
        <g filter="url(#a)">
            <path d="m 0 0 h 16 v 16 h -16 z" fill-opacity="0.5"/>
        </g>
    </mask>
    <clipPath id="y">
        <path d="m 0 0 h 1024 v 800 h -1024 z"/>
    </clipPath>
    <mask id="z">
        <g filter="url(#a)">
            <path d="m 0 0 h 16 v 16 h -16 z" fill-opacity="0.5"/>
        </g>
    </mask>
    <clipPath id="A">
        <path d="m 0 0 h 1024 v 800 h -1024 z"/>
    </clipPath>
    <g clip-path="url(#c)" mask="url(#b)" transform="matrix(1 0 0 1 -220 -40)">
        <path d="m 562.460938 212.058594 h 10.449218 c -1.183594 0.492187 -1.296875 2.460937 0 3 h -10.449218 z m 0 0" fill="#2e3436"/>
    </g>
    <g clip-path="url(#e)" mask="url(#d)" transform="matrix(1 0 0 1 -220 -40)">
        <path d="m 16 632 h 1 v 1 h -1 z m 0 0" fill="#2e3436" fill-rule="evenodd"/>
    </g>
    <g clip-path="url(#g)" mask="url(#f)" transform="matrix(1 0 0 1 -220 -40)">
        <path d="m 17 631 h 1 v 1 h -1 z m 0 0" fill="#2e3436" fill-rule="evenodd"/>
    </g>
    <g clip-path="url(#i)" mask="url(#h)" transform="matrix(1 0 0 1 -220 -40)">
        <path d="m 18 634 h 1 v 1 h -1 z m 0 0" fill="#2e3436" fill-rule="evenodd"/>
    </g>
    <g clip-path="url(#k)" mask="url(#j)" transform="matrix(1 0 0 1 -220 -40)">
        <path d="m 16 634 h 1 v 1 h -1 z m 0 0" fill="#2e3436" fill-rule="evenodd"/>
    </g>
    <g clip-path="url(#m)" mask="url(#l)" transform="matrix(1 0 0 1 -220 -40)">
        <path d="m 17 635 h 1 v 1 h -1 z m 0 0" fill="#2e3436" fill-rule="evenodd"/>
    </g>
    <g clip-path="url(#o)" mask="url(#n)" transform="matrix(1 0 0 1 -220 -40)">
        <path d="m 19 635 h 1 v 1 h -1 z m 0 0" fill="#2e3436" fill-rule="evenodd"/>
    </g>
    <g clip-path="url(#q)" mask="url(#p)" transform="matrix(1 0 0 1 -220 -40)">
        <path d="m 136 660 v 7 h 7 v -7 z m 0 0" fill="#2e3436"/>
    </g>
    <g clip-path="url(#s)" mask="url(#r)" transform="matrix(1 0 0 1 -220 -40)">
        <path d="m 199 642 h 3 v 12 h -3 z m 0 0" fill="#2e3436"/>
    </g>
    <g clip-path="url(#u)" mask="url(#t)" transform="matrix(1 0 0 1 -220 -40)">
        <path d="m 209.5 144.160156 c 0.277344 0 0.5 0.222656 0.5 0.5 v 1 c 0 0.277344 -0.222656 0.5 -0.5 0.5 s -0.5 -0.222656 -0.5 -0.5 v -1 c 0 -0.277344 0.222656 -0.5 0.5 -0.5 z m 0 0" fill="#2e3436"/>
    </g>
    <g clip-path="url(#w)" mask="url(#v)" transform="matrix(1 0 0 1 -220 -40)">
        <path d="m 206.5 144.160156 c 0.277344 0 0.5 0.222656 0.5 0.5 v 1 c 0 0.277344 -0.222656 0.5 -0.5 0.5 s -0.5 -0.222656 -0.5 -0.5 v -1 c 0 -0.277344 0.222656 -0.5 0.5 -0.5 z m 0 0" fill="#2e3436"/>
    </g>
    <g clip-path="url(#y)" mask="url(#x)" transform="matrix(1 0 0 1 -220 -40)">
        <path d="m 229.5 143.160156 c -0.546875 0 -1 0.457032 -1 1 c 0 0.546875 0.453125 1 1 1 s 1 -0.453125 1 -1 c 0 -0.542968 -0.453125 -1 -1 -1 z m 0 0" fill="#2e3436"/>
    </g>
    <g clip-path="url(#A)" mask="url(#z)" transform="matrix(1 0 0 1 -220 -40)">
        <path d="m 226.453125 143.160156 c -0.519531 0 -0.953125 0.433594 -0.953125 0.953125 v 0.09375 c 0 0.519531 0.433594 0.953125 0.953125 0.953125 h 0.09375 c 0.519531 0 0.953125 -0.433594 0.953125 -0.953125 v -0.09375 c 0 -0.519531 -0.433594 -0.953125 -0.953125 -0.953125 z m 0 0" fill="#2e3436"/>
    </g>
    <path d="m 7 1 v 2 h -2 c -1.070312 0 -2.0625 0.570312 -2.59375 1.496094 c -0.535156 0.925781 -0.535156 2.070312 0 2.996094 c 0.53125 0.925781 1.523438 1.5 2.59375 1.5 v 0.011718 h 2 v 2 h -4 v 2 h 4 v 2 h 2 v -2 h 2 v -0.011718 c 1.644531 0 2.996094 -1.351563 2.996094 -2.996094 c 0 -1.644532 -1.351563 -2.996094 -2.996094 -2.996094 h -2 v -2 h 4 v -2 h -4 v -2 z m -1.960938 4 h 1.960938 v 2 h -1.894531 c -0.039063 -0.003906 -0.074219 -0.007812 -0.109375 -0.011719 c -0.359375 0 -0.683594 -0.1875 -0.863282 -0.496093 c -0.179687 -0.308594 -0.179687 -0.6875 0 -0.996094 c 0.179688 -0.308594 0.503907 -0.5 0.863282 -0.5 c 0.015625 0.003906 0.027344 0.003906 0.042968 0 z m 3.960938 4 h 2 c 0.5625 0 0.996094 0.433594 0.996094 0.996094 s -0.433594 0.996094 -0.996094 0.996094 l -2 0.011718 z m 0 0" fill="#2e3436"/>
</svg>

<svg height="16" width="16" xmlns="http://www.w3.org/2000/svg"><path d="M7 1v2H5a2.996 2.996 0 0 0 0 5.992v.012h2v2H3v2h4v2h2v-2h2v-.012a3.01 3.01 0 0 0 2.996-2.996A3.01 3.01 0 0 0 11 7H9V5h4V3H9V1zM5.04 5H7v2H5.105a9.66 9.66 0 0 1-.109-.012.992.992 0 0 1-.863-1.492c.18-.309.504-.5.863-.5a.08.08 0 0 0 .043 0zM9 9h2c.563 0 .996.434.996.996s-.434.996-.996.996l-2 .012zm0 0" fill="#2e3436"/></svg>
